src/scalable/apps/telegram.svg

<svg width="64" height="64" viewBox="0 0 64 64" fill="none" xmlns="http://www.w3.org/2000/svg">
<path d="M32 59C46.9117 59 59 46.9117 59 32C59 17.0883 46.9117 5 32 5C17.0883 5 5 17.0883 5 32C5 46.9117 17.0883 59 32 59Z" fill="#3DB0E3"/>
<path fill-rule="evenodd" clip-rule="evenodd" d="M17.9856 31.351C25.7686 27.9747 30.9499 25.7313 33.5516 24.6428C40.9566 21.5553 42.5132 21.0222 43.5139 21C43.7363 21 44.2255 21.0444 44.5591 21.311C44.8259 21.5331 44.8926 21.8219 44.9371 22.044C44.9816 22.2661 45.0261 22.7326 44.9816 23.088C44.5813 27.3083 42.8468 37.5483 41.9573 42.2573C41.5793 44.2564 40.8455 44.9228 40.1339 44.9894C38.5773 45.1227 37.3987 43.9677 35.9088 42.9903C33.5516 41.4577 32.2397 40.5025 29.9492 38.9921C27.303 37.2595 29.0153 36.3044 30.5274 34.7495C30.9277 34.3497 37.7545 28.1302 37.8879 27.5749C37.9101 27.5082 37.9101 27.2417 37.7545 27.1084C37.5988 26.9751 37.3764 27.0196 37.1986 27.064C36.9539 27.1084 33.2181 29.5962 25.9465 34.5052C24.8791 35.2382 23.9229 35.5936 23.0557 35.5714C22.0995 35.5492 20.276 35.0383 18.8973 34.594C17.2295 34.0609 15.8953 33.7722 16.0065 32.8392C16.0732 32.3506 16.7403 31.8619 17.9856 31.351Z" fill="white"/>
</svg>

<svg xmlns="http://www.w3.org/2000/svg" width="64" height="64" fill="none"><path fill="#3DB0E3" d="M32 59c14.912 0 27-12.088 27-27S46.912 5 32 5 5 17.088 5 32s12.088 27 27 27Z"/><path fill="#fff" fill-rule="evenodd" d="M17.986 31.351c7.783-3.376 12.964-5.62 15.566-6.708 7.405-3.088 8.961-3.62 9.962-3.643.222 0 .711.044 1.045.311.267.222.334.51.378.733.045.222.09.689.045 1.044-.4 4.22-2.135 14.46-3.025 19.17-.378 1.998-1.111 2.665-1.823 2.731-1.557.134-2.735-1.021-4.225-1.999-2.357-1.532-3.67-2.488-5.96-3.998-2.646-1.732-.934-2.688.578-4.242.4-.4 7.227-6.62 7.36-7.175.023-.067.023-.333-.133-.467-.155-.133-.378-.088-.555-.044-.245.044-3.98 2.532-11.252 7.441-1.068.733-2.024 1.089-2.891 1.066-.957-.022-2.78-.533-4.159-.977-1.667-.533-3.002-.822-2.89-1.755.066-.488.733-.977 1.979-1.488Z" clip-rule="evenodd"/></svg>
